; generated by PrusaSlicer 2.3.3+win64 on 2021-08-10 at 14:15:01 UTC


;
;

;
;
; 

; external perimeters extrusion width = 0.45mm
; perimeters extrusion width = 0.45mm
; infill extrusion width = 0.45mm
; solid infill extrusion width = 0.45mm
; top infill extrusion width = 0.40mm
; support material extrusion width = 0.35mm
; first layer extrusion width = 0.42mm

M73 P0 R14
M201 X1250 Y1250 Z400 E5000 ; sets maximum accelerations, mm/sec^2
M203 X180 Y180 Z12 E80 ; sets maximum feedrates, mm/sec
M204 P1250 R1250 T1250 ; sets acceleration (P, T) and retract acceleration (R), mm/sec^2
M205 X8.00 Y8.00 Z2.00 E10.00 ; sets the jerk limits, mm/sec
M205 S0 T0 ; sets the minimum extruding and travel feed rate, mm/sec
M107
;TYPE:Custom
G90 ; use absolute coordinates
M83 ; extruder relative mode
M104 S170 ; set extruder temp for bed leveling
M140 S60 ; set bed temp
M109 R170 ; wait for bed leveling temp
M190 S60 ; wait for bed temp
G28 ; home all without mesh bed level
G29 ; mesh bed leveling 
M104 S215 ; set extruder temp
G92 E0.0
G1 Y-2.0 X179 F2400
G1 Z3 F720
M109 S215 ; wait for extruder temp

; intro line
G1 X170 F1000
G1 Z0.2 F720
G1 X110.0 E8.0 F900
M73 P1 R14
G1 X40.0 E10.0 F700
G92 E0.0

M221 S95 ; set flow
G21 ; set units to millimeters
G90 ; use absolute coordinates
M83 ; use relative distances for extrusion
M900 K0.2 ; Filament gcode LA 1.5
; ; Filament gcode LA 1.0
;LAYER_CHANGE
;Z:0.2
;HEIGHT:0.2
;BEFORE_LAYER_CHANGE
G92 E0.0
;0.2


G1 E-3.20000 F4200.000
G1 Z0.200 F9000.000
;AFTER_LAYER_CHANGE
;0.2
G1 Z0.400
G1 X69.669 Y80.069
G1 Z0.200
G1 E3.20000 F2400.000
M204 S800
;TYPE:Skirt
;WIDTH:0.42
G1 F1200.000
G1 X70.600 Y79.695 E0.03145
G1 X78.107 Y78.365 E0.23904
M73 P2 R14
G1 X101.740 Y78.360 E0.74101
G1 X102.586 Y78.451 E0.02669
G1 X109.675 Y79.765 E0.22603
G1 X110.236 Y80.012 E0.01924
G1 X110.730 Y80.377 E0.01924
G1 X111.127 Y80.839 E0.01912
G1 X111.415 Y81.381 E0.01924
G1 X111.608 Y82.361 E0.03132
G1 X111.603 Y97.935 E0.48831
G1 X111.489 Y98.576 E0.02039
G1 X111.228 Y99.171 E0.02039
G1 X110.835 Y99.689 E0.02039
G1 X110.331 Y100.100 E0.02039
G1 X109.856 Y100.341 E0.01669
G1 X109.344 Y100.486 E0.01669
G1 X101.881 Y101.636 E0.23677
G1 X78.207 Y101.639 E0.74228
G1 X70.469 Y100.445 E0.24549
G1 X69.531 Y100.007 E0.03246
G1 X68.822 Y99.253 E0.03246
G1 X68.511 Y98.577 E0.02333
G1 X68.393 Y97.847 E0.02320
G1 X68.395 Y82.271 E0.48836
G1 X68.502 Y81.621 E0.02065
G1 X68.761 Y81.016 E0.02065
G1 X69.160 Y80.486 E0.02078
G1 X69.623 Y80.107 E0.01877
M204 S1250
G1 X69.859 Y80.401 F9000.000
M204 S800
G1 F1200.000
G1 X70.683 Y80.062 E0.02793
G1 X78.141 Y78.740 E0.23748
G1 X101.736 Y78.737 E0.73980
M73 P2 R13
G1 X102.518 Y78.822 E0.02467
G1 X109.532 Y80.116 E0.22364
G1 X110.022 Y80.324 E0.01668
G1 X110.456 Y80.638 E0.01680
G1 X110.809 Y81.042 E0.01680
G1 X111.062 Y81.514 E0.01680
G1 X111.231 Y82.369 E0.02731
G1 X111.228 Y97.901 E0.48701
M73 P3 R13
G1 X111.130 Y98.463 E0.01787
G1 X110.901 Y98.985 E0.01787
G1 X110.554 Y99.437 E0.01787
G1 X110.110 Y99.794 E0.01787
G1 X109.268 Y100.116 E0.02825
G1 X101.847 Y101.260 E0.23542
G1 X78.218 Y101.262 E0.74087
G1 X70.579 Y100.084 E0.24237
G1 X69.751 Y99.700 E0.02860
G1 X69.129 Y99.033 E0.02860
G1 X68.868 Y98.455 E0.01989
G1 X68.770 Y97.828 E0.01989
G1 X68.771 Y82.295 E0.48704
G1 X68.864 Y81.729 E0.01799
G1 X69.092 Y81.198 E0.01811
G1 X69.441 Y80.738 E0.01811
G1 X69.813 Y80.438 E0.01497
M204 S1250
; printing object C:/Users/Filippo/AppData/Local/Temp/Neutron/2507ce79-4e12-49cc-9547-79c07c770f4a.stl id:0 copy 0
G1 E-2.24000 F4200.000
;WIPE_START
G1 F7200.000
G1 X70.683 Y80.062 E-0.52558
G1 X71.370 Y79.941 E-0.38642
;WIPE_END
G1 E-0.04800 F4200.000
G1 Z0.400 F9000.000
G1 X74.917 Y82.905
G1 Z0.200
G1 E3.20000 F2400.000
M204 S800
;TYPE:Support material
G1 F1200.000
G1 X74.917 Y82.394 E0.01601
G1 X74.163 Y82.394 E0.02365
G1 X74.163 Y85.187 E0.08756
M204 S1250
G1 X73.948 Y85.221 F9000.000
M204 S800
;TYPE:Support material interface
;WIDTH:0.35
G1 F1200.000
G1 X73.948 Y94.636 E0.24038
G1 X74.179 Y94.636 E0.00591
G1 X74.187 Y93.255 E0.03526
G1 X74.284 Y92.846 E0.01073
G1 X74.466 Y92.476 E0.01052
G1 X74.466 Y87.524 E0.12644
G1 X74.704 Y87.831 E0.00991
G1 X74.984 Y88.073 E0.00945
G1 X74.984 Y91.927 E0.09841
G1 X75.275 Y91.757 E0.00861
G1 X75.501 Y91.667 E0.00623
G1 X75.501 Y88.333 E0.08510
G1 X75.798 Y88.405 E0.00780
G1 X76.019 Y88.427 E0.00567
G1 X76.019 Y91.716 E0.08398
M204 S1250
G1 X77.179 Y87.925 F9000.000
M204 S800
;TYPE:Support material
;WIDTH:0.42
G1 F1200.000
G1 X77.179 Y91.867 E0.12362
G1 X77.392 Y92.028 E0.00837
G1 X77.635 Y92.283 E0.01102
G1 X77.837 Y92.595 E0.01165
G1 X77.933 Y92.814 E0.00752
G1 X77.933 Y87.186 E0.17649
G1 X78.021 Y86.880 E0.00996
G1 X78.051 Y86.675 E0.00651
G1 X78.059 Y85.250 E0.04469
G1 X78.688 Y85.185 E0.01983
G1 X78.688 Y94.965 E0.30665
M204 S1250
G1 E-2.24000 F4200.000
;WIPE_START
G1 F7200.000
G1 X78.688 Y93.319 E-0.91200
;WIPE_END
G1 E-0.04800 F4200.000
G1 Z0.400 F9000.000
G1 X82.458 Y95.458
G1 Z0.200
G1 E3.20000 F2400.000
M204 S800
G1 F1200.000
G1 X82.458 Y84.712 E0.33693
G1 X83.213 Y84.712 E0.02365
G1 X83.213 Y95.288 E0.33161
M73 P4 R13
G1 X83.967 Y95.288 E0.02365
G1 X83.967 Y84.712 E0.33161
G1 X84.712 Y84.712 E0.02336
G1 X84.721 Y84.559 E0.00482
G1 X84.721 Y95.611 E0.34655
M204 S1250
G1 E-2.24000 F4200.000
;WIPE_START
G1 F7200.000
G1 X84.721 Y93.965 E-0.91200
;WIPE_END
G1 E-0.04800 F4200.000
G1 Z0.400 F9000.000
G1 X85.858 Y87.539
G1 Z0.200
G1 E3.20000 F2400.000
M204 S800
;TYPE:Support material interface
;WIDTH:0.35
G1 F1200.000
G1 X85.858 Y92.318 E0.12202
G1 X86.375 Y92.318 E0.01322
G1 X86.375 Y87.682 E0.11837
G1 X86.893 Y87.682 E0.01322
G1 X86.893 Y92.318 E0.11837
G1 X87.411 Y92.318 E0.01322
G1 X87.411 Y87.682 E0.11837
G1 X87.682 Y87.682 E0.00692
G1 X87.682 Y85.364 E0.05918
G1 X87.929 Y85.364 E0.00630
G1 X87.929 Y94.636 E0.23673
G1 X88.447 Y94.636 E0.01322
G1 X88.447 Y85.364 E0.23673
G1 X88.964 Y85.364 E0.01322
G1 X88.964 Y94.636 E0.23673
G1 X89.482 Y94.636 E0.01322
G1 X89.482 Y85.364 E0.23673
G1 X90.000 Y85.364 E0.01322
G1 X90.000 Y94.636 E0.23673
G1 X90.518 Y94.636 E0.01322
G1 X90.518 Y85.364 E0.23673
G1 X91.036 Y85.364 E0.01322
G1 X91.036 Y94.636 E0.23673
G1 X91.553 Y94.636 E0.01322
G1 X91.553 Y85.364 E0.23673
G1 X92.071 Y85.364 E0.01322
G1 X92.071 Y94.636 E0.23673
G1 X92.318 Y94.636 E0.00630
G1 X92.318 Y92.318 E0.05918
G1 X92.589 Y92.318 E0.00693
G1 X92.589 Y87.682 E0.11837
G1 X93.107 Y87.682 E0.01322
G1 X93.107 Y92.318 E0.11837
M73 P5 R13
G1 X93.625 Y92.318 E0.01322
G1 X93.625 Y87.682 E0.11837
G1 X94.142 Y87.682 E0.01322
G1 X94.142 Y92.461 E0.12202
M204 S1250
G1 X97.542 Y95.458 F9000.000
M204 S800
;TYPE:Support material
;WIDTH:0.42
G1 F1200.000
G1 X97.542 Y84.712 E0.33693
G1 X96.787 Y84.712 E0.02365
G1 X96.787 Y95.288 E0.33161
G1 X96.033 Y95.288 E0.02365
G1 X96.033 Y84.712 E0.33161
G1 X95.288 Y84.712 E0.02336
G1 X95.288 Y84.559 E0.00481
G1 X95.279 Y95.441 E0.34123
G1 X94.525 Y95.441 E0.02365
G1 X94.525 Y92.665 E0.08705
G1 X93.771 Y92.665 E0.02365
G1 X93.771 Y95.441 E0.08705
G1 X93.017 Y95.441 E0.02365
G1 X93.017 Y92.665 E0.08705
G1 X92.665 Y92.665 E0.01102
G1 X92.665 Y94.983 E0.07267
G1 X92.262 Y94.983 E0.01263
G1 X92.262 Y95.762 E0.02441
G1 X91.811 Y95.921 E0.01501
G1 X91.508 Y96.004 E0.00985
G1 X91.508 Y94.983 E0.03202
G1 X90.754 Y94.983 E0.02365
G1 X90.754 Y96.144 E0.03641
G1 X90.141 Y96.190 E0.01927
G1 X90.000 Y96.190 E0.00443
G1 X90.000 Y94.983 E0.03783
G1 X89.246 Y94.983 E0.02365
G1 X89.246 Y96.144 E0.03641
G1 X88.492 Y96.004 E0.02405
G1 X88.492 Y94.983 E0.03202
G1 X87.738 Y94.983 E0.02365
G1 X87.738 Y95.762 E0.02441
G1 X87.087 Y95.465 E0.02241
G1 X86.983 Y95.441 E0.00334
G1 X86.983 Y92.665 E0.08705
G1 X86.229 Y92.665 E0.02365
G1 X86.229 Y95.441 E0.08705
G1 X85.475 Y95.441 E0.02365
G1 X85.475 Y92.665 E0.08705
G1 X85.017 Y92.665 E0.01436
G1 X85.017 Y87.335 E0.16714
G1 X85.475 Y87.335 E0.01436
G1 X85.475 Y84.559 E0.08705
G1 X86.229 Y84.559 E0.02365
G1 X86.229 Y87.335 E0.08705
G1 X86.983 Y87.335 E0.02365
G1 X86.983 Y84.559 E0.08705
G1 X87.087 Y84.535 E0.00334
G1 X87.738 Y84.238 E0.02241
G1 X87.738 Y85.017 E0.02441
G1 X88.492 Y85.017 E0.02365
G1 X88.492 Y83.996 E0.03201
G1 X89.246 Y83.856 E0.02405
G1 X89.246 Y85.017 E0.03641
G1 X90.000 Y85.017 E0.02365
G1 X90.000 Y83.810 E0.03783
G1 X90.424 Y83.823 E0.01329
G1 X90.754 Y83.856 E0.01041
G1 X90.754 Y85.017 E0.03641
G1 X91.508 Y85.017 E0.02365
G1 X91.508 Y83.996 E0.03201
G1 X91.811 Y84.079 E0.00985
G1 X92.262 Y84.238 E0.01501
G1 X92.262 Y85.017 E0.02441
G1 X92.665 Y85.017 E0.01263
G1 X92.665 Y87.335 E0.07267
G1 X93.017 Y87.335 E0.01102
G1 X93.017 Y84.559 E0.08705
G1 X93.771 Y84.559 E0.02365
G1 X93.771 Y87.335 E0.08705
G1 X94.525 Y87.335 E0.02365
G1 X94.525 Y84.389 E0.09237
M204 S1250
G1 E-2.24000 F4200.000
;WIPE_START
G1 F7200.000
G1 X94.525 Y86.035 E-0.91200
;WIPE_END
G1 E-0.04800 F4200.000
G1 Z0.400 F9000.000
G1 X102.821 Y92.075
G1 Z0.200
G1 E3.20000 F2400.000
M204 S800
G1 F1200.000
G1 X102.821 Y88.133 E0.12362
G1 X102.608 Y87.972 E0.00837
G1 X102.365 Y87.717 E0.01102
G1 X102.163 Y87.405 E0.01165
M73 P6 R13
G1 X102.067 Y87.186 E0.00752
G1 X102.067 Y92.814 E0.17649
G1 X101.979 Y93.120 E0.00996
G1 X101.949 Y93.325 E0.00651
G1 X101.941 Y94.750 E0.04469
G1 X101.312 Y94.815 E0.01983
G1 X101.312 Y85.035 E0.30665
M204 S1250
G1 E-2.24000 F4200.000
;WIPE_START
G1 F7200.000
G1 X101.312 Y86.681 E-0.91200
;WIPE_END
G1 E-0.04800 F4200.000
G1 Z0.400 F9000.000
G1 X105.083 Y82.905
G1 Z0.200
G1 E3.20000 F2400.000
M204 S800
G1 F1200.000
G1 X105.083 Y82.394 E0.01601
G1 X105.837 Y82.394 E0.02365
G1 X105.837 Y85.187 E0.08756
M204 S1250
G1 E-2.24000 F4200.000
;WIPE_START
G1 F7200.000
G1 X105.837 Y83.541 E-0.91200
;WIPE_END
G1 E-0.04800 F4200.000
G1 Z0.400 F9000.000
G1 X103.981 Y88.284
G1 Z0.200
G1 E3.20000 F2400.000
M204 S800
;TYPE:Support material interface
;WIDTH:0.35
G1 F1200.000
G1 X103.981 Y91.573 E0.08398
G1 X104.202 Y91.595 E0.00567
G1 X104.499 Y91.667 E0.00780
G1 X104.499 Y88.333 E0.08510
G1 X104.725 Y88.243 E0.00623
G1 X105.016 Y88.073 E0.00861
G1 X105.016 Y91.927 E0.09841
G1 X105.296 Y92.169 E0.00945
G1 X105.534 Y92.476 E0.00991
G1 X105.534 Y87.524 E0.12644
G1 X105.716 Y87.154 E0.01052
G1 X105.813 Y86.745 E0.01073
G1 X105.821 Y85.364 E0.03527
G1 X106.052 Y85.364 E0.00591
G1 X106.052 Y94.779 E0.24038
M204 S1250
G1 X105.083 Y97.776 F9000.000
M204 S800
;TYPE:Support material
;WIDTH:0.42
G1 F1200.000
G1 X105.083 Y97.410 E0.01145
G1 X105.384 Y96.902 E0.01853
G1 X105.588 Y96.430 E0.01610
G1 X105.743 Y95.910 E0.01703
G1 X105.837 Y95.332 E0.01834
G1 X105.837 Y97.606 E0.07128
G1 X106.591 Y97.606 E0.02365
G1 X106.591 Y82.394 E0.47696
G1 X107.346 Y82.394 E0.02365
G1 X107.346 Y97.606 E0.47696
G1 X108.100 Y97.606 E0.02365
G1 X108.100 Y82.394 E0.47696
G1 X108.854 Y82.394 E0.02365
G1 X108.854 Y97.776 E0.48228
M204 S1250
G1 E-2.24000 F4200.000
;WIPE_START
G1 F7200.000
G1 X108.854 Y96.130 E-0.91200
;WIPE_END
G1 E-0.04800 F4200.000
G1 Z0.400 F9000.000
G1 X74.917 Y97.776
G1 Z0.200
G1 E3.20000 F2400.000
M204 S800
G1 F1200.000
G1 X74.917 Y97.410 E0.01145
G1 X74.618 Y96.905 E0.01840
G1 X74.412 Y96.429 E0.01626
G1 X74.261 Y95.928 E0.01642
G1 X74.163 Y95.330 E0.01901
G1 X74.163 Y97.606 E0.07136
G1 X73.409 Y97.606 E0.02365
G1 X73.409 Y82.394 E0.47696
M73 P7 R13
G1 X72.654 Y82.394 E0.02365
G1 X72.654 Y97.606 E0.47696
G1 X71.900 Y97.606 E0.02365
G1 X71.900 Y82.394 E0.47696
G1 X71.146 Y82.394 E0.02365
G1 X71.146 Y97.776 E0.48228
M204 S1250
G1 E-2.24000 F4200.000
;WIPE_START
G1 F7200.000
G1 X71.146 Y96.130 E-0.91200
;WIPE_END
G1 E-0.04800 F4200.000
G1 Z0.400 F9000.000
G1 X76.813 Y96.687
G1 Z0.200
G1 E3.20000 F2400.000
M204 S800
;TYPE:Perimeter
G1 F1200.000
G1 X86.757 Y96.687 E0.31178
G1 X87.179 Y96.882 E0.01459
G1 X87.508 Y97.008 E0.01105
G1 X88.151 Y97.204 E0.02108
G1 X88.810 Y97.342 E0.02108
G1 X89.159 Y97.390 E0.01107
G1 X89.823 Y97.435 E0.02087
G1 X90.177 Y97.435 E0.01107
G1 X90.847 Y97.389 E0.02108
G1 X91.511 Y97.282 E0.02108
G1 X91.855 Y97.202 E0.01107
G1 X92.492 Y97.008 E0.02087
G1 X92.821 Y96.882 E0.01105
G1 X93.243 Y96.687 E0.01459
G1 X103.187 Y96.687 E0.31178
G1 X103.187 Y93.546 E0.09848
G1 X103.224 Y93.287 E0.00822
G1 X103.269 Y93.175 E0.00378
G1 X103.334 Y93.073 E0.00377
G1 X103.490 Y92.924 E0.00677
G1 X103.669 Y92.832 E0.00630
G1 X103.866 Y92.794 E0.00631
G1 X104.066 Y92.813 E0.00628
G1 X104.269 Y92.895 E0.00688
G1 X104.448 Y93.050 E0.00743
G1 X104.557 Y93.238 E0.00680
G1 X104.605 Y93.430 E0.00620
G1 X104.595 Y95.239 E0.05671
G1 X104.522 Y95.655 E0.01323
G1 X104.418 Y96.001 E0.01133
G1 X104.180 Y96.510 E0.01764
G1 X104.089 Y96.657 E0.00542
G1 X103.742 Y97.099 E0.01762
G1 X103.459 Y97.366 E0.01218
G1 X103.169 Y97.582 E0.01135
G1 X102.676 Y97.848 E0.01755
G1 X102.313 Y97.980 E0.01211
G1 X101.796 Y98.087 E0.01657
G1 X78.231 Y98.090 E0.73885
G1 X77.851 Y98.023 E0.01210
G1 X77.498 Y97.917 E0.01155
G1 X77.163 Y97.773 E0.01142
G1 X76.836 Y97.584 E0.01184
G1 X76.535 Y97.360 E0.01176
G1 X76.263 Y97.103 E0.01174
G1 X75.921 Y96.673 E0.01722
G1 X75.727 Y96.335 E0.01222
G1 X75.579 Y95.992 E0.01173
G1 X75.437 Y95.461 E0.01721
G1 X75.395 Y95.110 E0.01108
G1 X75.395 Y93.416 E0.05313
G1 X75.468 Y93.175 E0.00789
G1 X75.532 Y93.075 E0.00371
G1 X75.701 Y92.914 E0.00733
G1 X75.916 Y92.815 E0.00741
G1 X76.135 Y92.794 E0.00688
G1 X76.331 Y92.832 E0.00628
G1 X76.510 Y92.924 E0.00630
G1 X76.666 Y93.073 E0.00677
G1 X76.776 Y93.287 E0.00752
G1 X76.813 Y93.546 E0.00822
G1 X76.813 Y96.627 E0.09659
M204 S1250
G1 X77.190 Y96.310 F9000.000
M204 S800
;TYPE:External perimeter
G1 F1200.000
G1 X86.839 Y96.310 E0.30255
G1 X87.326 Y96.534 E0.01679
G1 X87.631 Y96.651 E0.01025
G1 X88.245 Y96.839 E0.02014
G1 X88.874 Y96.970 E0.02014
G1 X89.198 Y97.014 E0.01026
G1 X89.836 Y97.058 E0.02006
G1 X90.164 Y97.058 E0.01026
G1 X90.804 Y97.014 E0.02014
G1 X91.438 Y96.912 E0.02014
G1 X91.757 Y96.838 E0.01026
G1 X92.369 Y96.651 E0.02006
G1 X92.674 Y96.534 E0.01025
G1 X93.161 Y96.310 E0.01679
G1 X102.810 Y96.310 E0.30255
M73 P8 R13
G1 X102.810 Y93.520 E0.08749
G1 X102.857 Y93.189 E0.01048
G1 X102.932 Y93.001 E0.00633
G1 X103.041 Y92.832 E0.00631
G1 X103.269 Y92.614 E0.00988
G1 X103.544 Y92.472 E0.00970
G1 X103.848 Y92.414 E0.00970
G1 X104.156 Y92.443 E0.00970
G1 X104.452 Y92.562 E0.01000
G1 X104.612 Y92.676 E0.00619
G1 X104.752 Y92.823 E0.00634
G1 X104.910 Y93.095 E0.00987
G1 X104.982 Y93.383 E0.00932
G1 X104.969 Y95.288 E0.05971
G1 X104.889 Y95.742 E0.01445
G1 X104.774 Y96.125 E0.01254
G1 X104.696 Y96.322 E0.00665
G1 X104.401 Y96.869 E0.01949
G1 X104.012 Y97.362 E0.01969
G1 X103.706 Y97.651 E0.01321
G1 X103.371 Y97.900 E0.01308
G1 X102.820 Y98.197 E0.01962
G1 X102.426 Y98.340 E0.01316
G1 X101.828 Y98.464 E0.01914
G1 X78.198 Y98.467 E0.74090
G1 X77.764 Y98.391 E0.01383
G1 X77.374 Y98.274 E0.01276
G1 X76.989 Y98.108 E0.01315
G1 X76.628 Y97.900 E0.01304
G1 X76.292 Y97.650 E0.01313
G1 X75.988 Y97.362 E0.01312
G1 X75.603 Y96.876 E0.01946
G1 X75.389 Y96.505 E0.01343
G1 X75.226 Y96.126 E0.01292
G1 X75.065 Y95.528 E0.01943
G1 X75.018 Y95.133 E0.01247
G1 X75.018 Y93.378 E0.05501
G1 X75.056 Y93.191 E0.00599
G1 X75.132 Y93.001 E0.00641
G1 X75.239 Y92.834 E0.00624
G1 X75.474 Y92.610 E0.01016
G1 X75.648 Y92.509 E0.00633
G1 X75.835 Y92.444 E0.00619
G1 X76.152 Y92.414 E0.01000
G1 X76.456 Y92.472 E0.00970
G1 X76.731 Y92.614 E0.00970
G1 X76.959 Y92.832 E0.00988
G1 X77.068 Y93.001 E0.00631
G1 X77.143 Y93.189 E0.00633
G1 X77.190 Y93.520 E0.01048
G1 X77.190 Y96.250 E0.08561
M204 S1250
G1 X77.192 Y96.710 F9000.000
G1 E-2.24000 F4200.000
;WIPE_START
G1 F7200.000
G1 X78.836 Y96.260 E-0.91200
;WIPE_END
G1 E-0.04800 F4200.000
G1 Z0.400 F9000.000
G1 X87.787 Y97.211
G1 Z0.200
G1 E3.20000 F2400.000
M204 S800
;TYPE:Solid infill
;WIDTH:0.432105
G1 F1200.000
G1 X88.382 Y97.805 E0.02719
G1 X87.831 Y97.806 E0.01781
G1 X87.229 Y97.204 E0.02754
G1 X86.695 Y96.970 E0.01889
G1 X86.445 Y96.970 E0.00808
G1 X87.281 Y97.806 E0.03825
G1 X86.731 Y97.806 E0.01781
G1 X85.895 Y96.970 E0.03825
G1 X85.344 Y96.970 E0.01781
G1 X86.180 Y97.806 E0.03825
G1 X85.630 Y97.806 E0.01781
G1 X84.794 Y96.970 E0.03826
G1 X84.244 Y96.970 E0.01781
G1 X85.080 Y97.806 E0.03826
G1 X84.529 Y97.806 E0.01781
