; generated by PrusaSlicer 2.3.3+win64 on 2021-08-10 at 14:14:19 UTC


;
;

;
;
; 

; external perimeters extrusion width = 0.45mm
; perimeters extrusion width = 0.45mm
; infill extrusion width = 0.45mm
; solid infill extrusion width = 0.45mm
; top infill extrusion width = 0.40mm
; first layer extrusion width = 0.42mm

M73 P0 R9
M201 X1250 Y1250 Z400 E5000 ; sets maximum accelerations, mm/sec^2
M203 X180 Y180 Z12 E80 ; sets maximum feedrates, mm/sec
M204 P1250 R1250 T1250 ; sets acceleration (P, T) and retract acceleration (R), mm/sec^2
M205 X8.00 Y8.00 Z2.00 E10.00 ; sets the jerk limits, mm/sec
M205 S0 T0 ; sets the minimum extruding and travel feed rate, mm/sec
M107
;TYPE:Custom
G90 ; use absolute coordinates
M83 ; extruder relative mode
M104 S170 ; set extruder temp for bed leveling
M140 S60 ; set bed temp
M109 R170 ; wait for bed leveling temp
M190 S60 ; wait for bed temp
G28 ; home all without mesh bed level
G29 ; mesh bed leveling 
M104 S215 ; set extruder temp
G92 E0.0
G1 Y-2.0 X179 F2400
G1 Z3 F720
M109 S215 ; wait for extruder temp

; intro line
G1 X170 F1000
G1 Z0.2 F720
G1 X110.0 E8.0 F900
M73 P1 R9
G1 X40.0 E10.0 F700
G92 E0.0

M221 S95 ; set flow
G21 ; set units to millimeters
G90 ; use absolute coordinates
M83 ; use relative distances for extrusion
M900 K0.2 ; Filament gcode LA 1.5
; ; Filament gcode LA 1.0
;LAYER_CHANGE
;Z:0.2
;HEIGHT:0.2
;BEFORE_LAYER_CHANGE
G92 E0.0
;0.2


M73 P2 R9
G1 E-3.20000 F4200.000
G1 Z0.200 F9000.000
;AFTER_LAYER_CHANGE
;0.2
G1 Z0.400
G1 X73.473 Y80.704
G1 Z0.200
G1 E3.20000 F2400.000
M204 S800
;TYPE:Skirt
;WIDTH:0.42
G1 F1200.000
G1 X74.591 Y79.664 E0.04789
G1 X75.505 Y79.097 E0.03371
G1 X76.299 Y78.750 E0.02719
G1 X77.356 Y78.462 E0.03435
G1 X78.234 Y78.356 E0.02771
M73 P3 R9
G1 X101.404 Y78.346 E0.72649
G1 X102.575 Y78.449 E0.03685
G1 X103.712 Y78.754 E0.03691
G1 X104.779 Y79.252 E0.03691
G1 X105.740 Y79.925 E0.03679
G1 X106.573 Y80.757 E0.03691
G1 X107.248 Y81.721 E0.03691
G1 X107.746 Y82.788 E0.03691
G1 X108.049 Y83.913 E0.03653
G1 X108.154 Y85.098 E0.03730
G1 X108.154 Y94.925 E0.30811
G1 X108.059 Y96.030 E0.03479
G1 X107.745 Y97.216 E0.03845
G1 X107.211 Y98.342 E0.03909
G1 X106.353 Y99.491 E0.04495
G1 X105.409 Y100.336 E0.03973
G1 X104.495 Y100.903 E0.03371
G1 X103.701 Y101.250 E0.02719
G1 X102.644 Y101.538 E0.03435
G1 X101.766 Y101.644 E0.02771
G1 X78.246 Y101.645 E0.73745
G1 X76.732 Y101.390 E0.04815
G1 X75.498 Y100.899 E0.04166
G1 X74.241 Y100.060 E0.04737
G1 X73.164 Y98.909 E0.04943
G1 X72.714 Y98.211 E0.02604
G1 X72.274 Y97.266 E0.03268
G1 X72.027 Y96.456 E0.02655
G1 X71.884 Y95.617 E0.02668
G1 X71.860 Y84.664 E0.34341
G1 X72.129 Y83.165 E0.04776
G1 X72.720 Y81.778 E0.04725
G1 X73.438 Y80.753 E0.03925
M204 S1250
G1 X73.746 Y80.969 F9000.000
M204 S800
G1 F1200.000
G1 X74.831 Y79.956 E0.04657
G1 X75.687 Y79.428 E0.03152
G1 X76.433 Y79.103 E0.02552
G1 X77.432 Y78.831 E0.03247
G1 X78.259 Y78.732 E0.02611
G1 X101.404 Y78.723 E0.72569
M73 P4 R9
G1 X102.507 Y78.820 E0.03472
G1 X103.581 Y79.107 E0.03485
G1 X104.588 Y79.577 E0.03485
G1 X105.499 Y80.215 E0.03485
G1 X106.285 Y81.000 E0.03485
G1 X106.922 Y81.911 E0.03485
G1 X107.392 Y82.918 E0.03485
G1 X107.680 Y83.992 E0.03485
G1 X107.777 Y85.100 E0.03487
G1 X107.777 Y94.919 E0.30787
G1 X107.688 Y95.962 E0.03281
G1 X107.375 Y97.127 E0.03782
G1 X106.765 Y98.346 E0.04274
G1 X106.042 Y99.273 E0.03687
G1 X105.169 Y100.044 E0.03652
G1 X104.313 Y100.572 E0.03152
G1 X103.567 Y100.897 E0.02552
G1 X102.568 Y101.169 E0.03247
G1 X101.741 Y101.268 E0.02611
G1 X78.264 Y101.268 E0.73610
G1 X76.790 Y101.015 E0.04690
G1 X75.468 Y100.455 E0.04500
G1 X74.452 Y99.743 E0.03889
G1 X73.456 Y98.669 E0.04595
G1 X72.930 Y97.817 E0.03140
G1 X72.609 Y97.085 E0.02504
G1 X72.382 Y96.315 E0.02516
G1 X72.239 Y95.340 E0.03092
G1 X72.236 Y84.692 E0.33386
G1 X72.490 Y83.275 E0.04512
G1 X73.051 Y81.958 E0.04488
G1 X73.711 Y81.018 E0.03602
M204 S1250
; printing object C:/Users/Filippo/AppData/Local/Temp/Neutron/8e5402af-7420-440f-91bd-c4607b7eb3ee.stl id:0 copy 0
G1 E-2.24000 F4200.000
;WIPE_START
G1 F7200.000
G1 X74.831 Y79.956 E-0.85558
G1 X74.918 Y79.902 E-0.05642
;WIPE_END
G1 E-0.04800 F4200.000
G1 Z0.400 F9000.000
G1 X76.813 Y83.313
G1 Z0.200
G1 E3.20000 F2400.000
M204 S800
;TYPE:Perimeter
G1 F1200.000
G1 X86.757 Y83.313 E0.31178
M73 P5 R9
G1 X87.179 Y83.118 E0.01459
G1 X87.508 Y82.992 E0.01105
G1 X88.145 Y82.798 E0.02087
G1 X88.489 Y82.718 E0.01107
G1 X89.153 Y82.611 E0.02108
G1 X89.830 Y82.564 E0.02129
G1 X90.490 Y82.579 E0.02069
G1 X90.853 Y82.612 E0.01145
G1 X91.518 Y82.719 E0.02110
G1 X92.169 Y82.886 E0.02108
G1 X92.498 Y82.995 E0.01086
G1 X92.821 Y83.118 E0.01084
G1 X93.243 Y83.313 E0.01459
G1 X103.187 Y83.313 E0.31178
G1 X103.187 Y96.687 E0.41934
G1 X93.243 Y96.687 E0.31178
G1 X92.821 Y96.882 E0.01459
G1 X92.492 Y97.008 E0.01105
G1 X91.855 Y97.202 E0.02087
G1 X91.518 Y97.281 E0.01086
G1 X91.177 Y97.344 E0.01085
G1 X90.522 Y97.419 E0.02069
G1 X89.831 Y97.436 E0.02168
G1 X89.159 Y97.390 E0.02109
G1 X88.810 Y97.342 E0.01107
G1 X88.151 Y97.204 E0.02108
G1 X87.508 Y97.008 E0.02108
G1 X87.179 Y96.882 E0.01105
G1 X86.757 Y96.687 E0.01459
G1 X76.813 Y96.687 E0.31178
G1 X76.813 Y83.373 E0.41746
M204 S1250
G1 X77.190 Y83.690 F9000.000
M204 S800
;TYPE:External perimeter
G1 F1200.000
G1 X86.839 Y83.690 E0.30255
G1 X87.326 Y83.466 E0.01679
G1 X87.631 Y83.349 E0.01025
G1 X88.243 Y83.162 E0.02006
G1 X88.562 Y83.088 E0.01026
G1 X89.196 Y82.986 E0.02014
G1 X89.839 Y82.942 E0.02021
G1 X90.468 Y82.956 E0.01975
G1 X90.807 Y82.986 E0.01064
G1 X91.441 Y83.088 E0.02014
G1 X92.063 Y83.248 E0.02014
G1 X92.371 Y83.350 E0.01018
G1 X92.674 Y83.466 E0.01018
G1 X93.161 Y83.690 E0.01679
G1 X102.810 Y83.690 E0.30255
G1 X102.810 Y96.310 E0.39569
M73 P6 R9
G1 X93.161 Y96.310 E0.30255
G1 X92.674 Y96.534 E0.01679
G1 X92.369 Y96.651 E0.01025
G1 X91.757 Y96.838 E0.02006
G1 X91.441 Y96.912 E0.01018
G1 X91.121 Y96.971 E0.01018
G1 X90.496 Y97.043 E0.01975
G1 X89.839 Y97.058 E0.02059
G1 X89.198 Y97.014 E0.02014
G1 X88.874 Y96.970 E0.01026
G1 X88.245 Y96.839 E0.02014
G1 X87.631 Y96.651 E0.02014
G1 X87.326 Y96.534 E0.01025
G1 X86.839 Y96.310 E0.01679
G1 X77.190 Y96.310 E0.30255
G1 X77.190 Y83.750 E0.39381
M204 S1250
G1 X77.104 Y83.299 F9000.000
G1 E-2.24000 F4200.000
;WIPE_START
G1 F7200.000
G1 X78.836 Y83.740 E-0.91200
;WIPE_END
G1 E-0.04800 F4200.000
G1 Z0.400 F9000.000
G1 X77.336 Y82.147
G1 Z0.200
G1 E3.20000 F2400.000
M204 S800
;TYPE:Perimeter
G1 F1200.000
G1 X77.859 Y81.975 E0.01729
G1 X78.227 Y81.910 E0.01171
G1 X78.620 Y81.887 E0.01234
G1 X101.383 Y81.887 E0.71372
G1 X101.949 Y81.935 E0.01782
G1 X102.329 Y82.025 E0.01225
G1 X102.841 Y82.230 E0.01729
G1 X103.311 Y82.518 E0.01729
G1 X103.611 Y82.769 E0.01225
G1 X103.982 Y83.189 E0.01756
G1 X104.079 Y83.328 E0.00532
G1 X104.346 Y83.820 E0.01756
G1 X104.477 Y84.179 E0.01198
G1 X104.590 Y84.719 E0.01729
G1 X104.613 Y85.120 E0.01261
G1 X104.613 Y94.880 E0.30602
G1 X104.590 Y95.273 E0.01234
G1 X104.525 Y95.641 E0.01171
G1 X104.418 Y95.999 E0.01171
G1 X104.270 Y96.341 E0.01171
G1 X104.083 Y96.665 E0.01171
G1 X103.860 Y96.965 E0.01171
G1 X103.604 Y97.236 E0.01171
G1 X103.318 Y97.476 E0.01171
G1 X103.006 Y97.682 E0.01171
G1 X102.507 Y97.916 E0.01729
G1 X102.141 Y98.025 E0.01198
G1 X101.773 Y98.090 E0.01171
G1 X101.380 Y98.113 E0.01234
G1 X78.413 Y98.106 E0.72011
M73 P7 R9
G1 X78.042 Y98.063 E0.01171
G1 X77.679 Y97.977 E0.01171
G1 X77.328 Y97.849 E0.01171
G1 X76.994 Y97.682 E0.01171
G1 X76.542 Y97.366 E0.01729
G1 X76.264 Y97.104 E0.01198
G1 X76.024 Y96.818 E0.01171
G1 X75.818 Y96.506 E0.01171
G1 X75.651 Y96.172 E0.01171
G1 X75.523 Y95.821 E0.01171
G1 X75.437 Y95.458 E0.01171
G1 X75.394 Y95.087 E0.01172
G1 X75.387 Y85.120 E0.31250
G1 X75.410 Y84.727 E0.01233
G1 X75.475 Y84.359 E0.01171
G1 X75.582 Y84.001 E0.01171
G1 X75.730 Y83.659 E0.01171
G1 X75.917 Y83.335 E0.01171
G1 X76.140 Y83.035 E0.01171
G1 X76.396 Y82.764 E0.01171
G1 X76.682 Y82.524 E0.01171
G1 X76.994 Y82.318 E0.01171
G1 X77.282 Y82.174 E0.01010
M204 S1250
G1 X76.805 Y81.991 F9000.000
M204 S800
;TYPE:External perimeter
G1 F1200.000
G1 X77.181 Y81.803 E0.01318
G1 X77.772 Y81.607 E0.01952
G1 X78.183 Y81.535 E0.01309
G1 X78.609 Y81.510 E0.01337
G1 X101.394 Y81.510 E0.71440
G1 X102.020 Y81.564 E0.01972
G1 X102.432 Y81.662 E0.01328
G1 X103.011 Y81.892 E0.01952
G1 X103.541 Y82.219 E0.01952
G1 X103.866 Y82.491 E0.01328
G1 X104.281 Y82.959 E0.01962
G1 X104.398 Y83.125 E0.00636
G1 X104.695 Y83.675 E0.01962
G1 X104.839 Y84.071 E0.01318
G1 X104.965 Y84.680 E0.01952
G1 X104.990 Y85.109 E0.01347
G1 X104.990 Y94.891 E0.30671
G1 X104.965 Y95.317 E0.01337
G1 X104.893 Y95.728 E0.01309
G1 X104.773 Y96.128 E0.01309
G1 X104.608 Y96.511 E0.01309
G1 X104.399 Y96.872 E0.01309
G1 X104.150 Y97.207 E0.01309
G1 X103.863 Y97.511 E0.01309
G1 X103.544 Y97.779 E0.01309
G1 X103.195 Y98.009 E0.01309
G1 X102.631 Y98.272 E0.01952
G1 X102.228 Y98.393 E0.01318
G1 X101.817 Y98.465 E0.01309
G1 X101.391 Y98.490 E0.01337
G1 X78.391 Y98.483 E0.72114
G1 X77.977 Y98.435 E0.01309
G1 X77.571 Y98.339 E0.01309
G1 X77.178 Y98.196 E0.01309
G1 X76.805 Y98.009 E0.01309
G1 X76.295 Y97.652 E0.01952
G1 X75.989 Y97.363 E0.01318
G1 X75.721 Y97.044 E0.01309
G1 X75.491 Y96.695 E0.01309
G1 X75.304 Y96.322 E0.01309
G1 X75.161 Y95.929 E0.01309
G1 X75.065 Y95.523 E0.01309
G1 X75.017 Y95.109 E0.01309
G1 X75.010 Y85.109 E0.31353
G1 X75.035 Y84.683 E0.01337
G1 X75.107 Y84.272 E0.01309
G1 X75.227 Y83.872 E0.01309
G1 X75.392 Y83.489 E0.01309
G1 X75.601 Y83.128 E0.01309
G1 X75.850 Y82.793 E0.01309
G1 X76.137 Y82.489 E0.01309
G1 X76.456 Y82.221 E0.01309
G1 X76.755 Y82.024 E0.01121
M204 S1250
G1 X77.152 Y82.191 F9000.000
G1 E-2.24000 F4200.000
;WIPE_START
M73 P8 R9
G1 F7200.000
G1 X77.181 Y81.803 E-0.26608
G1 X77.772 Y81.607 E-0.34506
G1 X78.183 Y81.535 E-0.23131
G1 X78.309 Y81.527 E-0.06955
;WIPE_END
G1 E-0.04800 F4200.000
G1 Z0.400 F9000.000
G1 X88.790 Y82.555
G1 Z0.200
G1 E3.20000 F2400.000
M204 S800
;TYPE:Solid infill
;WIDTH:0.42017
G1 F1200.000
G1 X88.405 Y82.170 E0.01706
G1 X87.872 Y82.170 E0.01674
G1 X88.197 Y82.495 E0.01443
G1 X87.782 Y82.613 E0.01355
G1 X87.338 Y82.170 E0.01966
G1 X86.805 Y82.170 E0.01674
G1 X87.375 Y82.740 E0.02531
G1 X86.994 Y82.892 E0.01288
G1 X86.271 Y82.170 E0.03205
G1 X85.738 Y82.170 E0.01674
G1 X86.598 Y83.030 E0.03816
G1 X86.065 Y83.030 E0.01674
G1 X85.204 Y82.170 E0.03816
G1 X84.671 Y82.170 E0.01674
G1 X85.531 Y83.030 E0.03816
G1 X84.998 Y83.030 E0.01674
G1 X84.137 Y82.170 E0.03816
G1 X83.604 Y82.170 E0.01674
G1 X84.464 Y83.030 E0.03816
G1 X83.930 Y83.030 E0.01674
G1 X83.070 Y82.170 E0.03816
G1 X82.537 Y82.170 E0.01674
G1 X83.397 Y83.030 E0.03816
G1 X82.863 Y83.030 E0.01674
G1 X82.003 Y82.170 E0.03816
G1 X81.470 Y82.170 E0.01674
G1 X82.330 Y83.030 E0.03816
G1 X81.796 Y83.030 E0.01674
G1 X80.936 Y82.170 E0.03816
G1 X80.403 Y82.170 E0.01674
G1 X81.263 Y83.030 E0.03816
G1 X80.729 Y83.030 E0.01674
G1 X79.869 Y82.170 E0.03816
G1 X79.336 Y82.170 E0.01674
G1 X80.196 Y83.030 E0.03816
G1 X79.662 Y83.030 E0.01674
G1 X78.802 Y82.170 E0.03816
G1 X78.628 Y82.170 E0.00546
G1 X78.288 Y82.190 E0.01068
G1 X79.129 Y83.030 E0.03729
G1 X78.595 Y83.030 E0.01674
G1 X77.843 Y82.278 E0.03338
G1 X77.442 Y82.410 E0.01325
G1 X78.062 Y83.030 E0.02751
G1 X77.528 Y83.030 E0.01674
G1 X77.091 Y82.593 E0.01939
G1 X76.777 Y82.813 E0.01202
G1 X77.165 Y83.200 E0.01717
M204 S1250
G1 X76.700 Y83.269 F9000.000
M204 S800
G1 F1200.000
G1 X76.498 Y83.067 E0.00893
G1 X76.254 Y83.356 E0.01187
G1 X76.530 Y83.632 E0.01227
G1 X76.530 Y84.166 E0.01674
G1 X76.044 Y83.680 E0.02156
G1 X75.872 Y84.042 E0.01256
G1 X76.530 Y84.699 E0.02918
G1 X76.530 Y85.233 E0.01674
G1 X75.746 Y84.449 E0.03478
G1 X75.682 Y84.918 E0.01486
G1 X76.530 Y85.767 E0.03762
G1 X76.530 Y86.300 E0.01674
G1 X75.670 Y85.440 E0.03815
G1 X75.670 Y85.974 E0.01675
G1 X76.530 Y86.834 E0.03814
G1 X76.530 Y87.367 E0.01674
G1 X75.671 Y86.508 E0.03812
G1 X75.671 Y87.042 E0.01675
G1 X76.530 Y87.901 E0.03811
G1 X76.530 Y88.434 E0.01674
G1 X75.671 Y87.575 E0.03809
G1 X75.672 Y88.109 E0.01675
G1 X76.530 Y88.968 E0.03808
M73 P8 R8
G1 X76.530 Y89.501 E0.01674
G1 X75.672 Y88.643 E0.03806
G1 X75.673 Y89.177 E0.01675
G1 X76.530 Y90.035 E0.03805
G1 X76.530 Y90.568 E0.01674
G1 X75.673 Y89.711 E0.03803
G1 X75.673 Y90.245 E0.01675
G1 X76.530 Y91.102 E0.03801
G1 X76.530 Y91.635 E0.01674
G1 X75.674 Y90.779 E0.03800
G1 X75.674 Y91.312 E0.01675
G1 X76.530 Y92.169 E0.03798
G1 X76.530 Y92.702 E0.01674
G1 X75.674 Y91.846 E0.03797
G1 X75.675 Y92.380 E0.01675
G1 X76.530 Y93.236 E0.03795
G1 X76.530 Y93.769 E0.01674
G1 X75.675 Y92.914 E0.03794
G1 X75.675 Y93.448 E0.01675
G1 X76.530 Y94.303 E0.03792
G1 X76.530 Y94.836 E0.01674
G1 X75.676 Y93.982 E0.03791
G1 X75.676 Y94.516 E0.01675
G1 X76.530 Y95.370 E0.03789
G1 X76.530 Y95.903 E0.01674
G1 X75.676 Y95.049 E0.03788
G1 X75.676 Y95.070 E0.00064
G1 X75.716 Y95.409 E0.01069
G1 X75.782 Y95.689 E0.00904
G1 X76.700 Y96.606 E0.04070
M204 S1250
G1 E-2.24000 F4200.000
;WIPE_START
G1 F7200.000
G1 X75.782 Y95.689 E-0.71900
G1 X75.716 Y95.409 E-0.15973
G1 X75.709 Y95.349 E-0.03327
;WIPE_END
G1 E-0.04800 F4200.000
G1 Z0.400 F9000.000
G1 X88.058 Y97.294
G1 Z0.200
G1 E3.20000 F2400.000
M204 S800
G1 F1200.000
G1 X88.590 Y97.827 E0.02363
M73 P9 R8
G1 X88.056 Y97.826 E0.01674
G1 X87.545 Y97.314 E0.02271
G1 X87.069 Y97.143 E0.01585
G1 X86.666 Y96.970 E0.01375
G1 X87.523 Y97.826 E0.03799
G1 X86.989 Y97.826 E0.01674
G1 X86.133 Y96.970 E0.03798
G1 X85.599 Y96.970 E0.01674
G1 X86.455 Y97.826 E0.03798
G1 X85.922 Y97.826 E0.01674
G1 X85.066 Y96.970 E0.03797
G1 X84.532 Y96.970 E0.01674
G1 X85.388 Y97.826 E0.03796
G1 X84.854 Y97.825 E0.01674
G1 X83.999 Y96.970 E0.03796
G1 X83.465 Y96.970 E0.01674
G1 X84.321 Y97.825 E0.03795
G1 X83.787 Y97.825 E0.01674
G1 X82.932 Y96.970 E0.03794
G1 X82.398 Y96.970 E0.01674
G1 X83.253 Y97.825 E0.03794
G1 X82.720 Y97.825 E0.01674
G1 X81.865 Y96.970 E0.03793
G1 X81.331 Y96.970 E0.01674
G1 X82.186 Y97.825 E0.03792
G1 X81.653 Y97.825 E0.01674
G1 X80.798 Y96.970 E0.03791
G1 X80.264 Y96.970 E0.01674
G1 X81.119 Y97.824 E0.03791
G1 X80.585 Y97.824 E0.01674
G1 X79.731 Y96.970 E0.03790
G1 X79.197 Y96.970 E0.01674
G1 X80.052 Y97.824 E0.03789
G1 X79.518 Y97.824 E0.01674
G1 X78.664 Y96.970 E0.03789
G1 X78.130 Y96.970 E0.01674
G1 X78.984 Y97.824 E0.03788
G1 X78.451 Y97.824 E0.01674
G1 X77.597 Y96.970 E0.03787
G1 X77.063 Y96.970 E0.01674
G1 X78.040 Y97.946 E0.04331
M204 S1250
G1 E-2.24000 F4200.000
;WIPE_START
G1 F7200.000
G1 X77.063 Y96.970 E-0.76513
G1 X77.328 Y96.970 E-0.14687
;WIPE_END
G1 E-0.04800 F4200.000
G1 Z0.400 F9000.000
G1 X89.071 Y97.747
G1 Z0.200
G1 E3.20000 F2400.000
M204 S800
;TYPE:Gap fill
;WIDTH:0.339847
G1 F1200.000
G1 X89.830 Y97.773 E0.01875
M204 S1250
M204 S800
;WIDTH:0.357843
G1 X90.553 Y97.764 E0.01893
M204 S1250
M204 S800
;WIDTH:0.379046
G1 X90.905 Y97.744 E0.00986
M204 S1250
G1 E-2.24000 F4200.000
;WIPE_START
G1 F7200.000
G1 X90.553 Y97.764 E-0.19544
;WIPE_END
G1 E-0.76456 F4200.000
G1 Z0.400 F9000.000
G1 X90.879 Y82.250
G1 Z0.200
G1 E3.20000 F2400.000
M204 S800
;WIDTH:0.376306
G1 F1200.000
G1 X90.514 Y82.233 E0.01013
M204 S1250
M204 S800
;WIDTH:0.358511
G1 X89.829 Y82.226 E0.01798
M204 S1250
M204 S800
;WIDTH:0.343134
G1 X89.121 Y82.250 E0.01769
M204 S1250
G1 E-2.24000 F4200.000
;WIPE_START
G1 F7200.000
G1 X89.829 Y82.226 E-0.39278
;WIPE_END
G1 E-0.56722 F4200.000
G1 Z0.400 F9000.000
G1 X102.749 Y82.313
G1 Z0.200
G1 E3.20000 F2400.000
M204 S800
;TYPE:Solid infill
;WIDTH:0.427093
G1 F1200.000
G1 X103.464 Y83.030 E0.03235
G1 X102.923 Y83.030 E0.01729
G1 X102.182 Y82.289 E0.03348
G1 X101.901 Y82.215 E0.00928
G1 X101.533 Y82.184 E0.01180
G1 X102.379 Y83.030 E0.03824
G1 X101.836 Y83.030 E0.01736
G1 X100.976 Y82.170 E0.03886
G1 X100.433 Y82.170 E0.01736
G1 X101.293 Y83.030 E0.03886
G1 X100.750 Y83.030 E0.01736
G1 X99.889 Y82.170 E0.03886
G1 X99.346 Y82.170 E0.01736
G1 X100.206 Y83.030 E0.03886
G1 X99.663 Y83.030 E0.01736
G1 X98.803 Y82.170 E0.03886
G1 X98.259 Y82.170 E0.01736
G1 X99.120 Y83.030 E0.03886
G1 X98.576 Y83.030 E0.01736
G1 X97.716 Y82.170 E0.03886
G1 X97.173 Y82.170 E0.01736
G1 X98.033 Y83.030 E0.03886
G1 X97.490 Y83.030 E0.01736
